X: 1
T:The Maid Behind The Bar
M:4/4
L:1/8
C:Trad
R:Reel
K:D
FAAF AFED|FAAF ABde|fBBA Bcde|f2af efdA|FAAB AFED|FAAF ABde|fBBA BcdB|AF
EF D4 :|
fgag fdde|(3fed ad fddf|efga beef|(3gfe be geeg|faaa b2af|defd e2de|fBBA
 BcdB|AFEF D4 :|
